packages/ui/src/lib/icons/svg/bin.svg

<svg xmlns="http://www.w3.org/2000/svg" fill="none" viewBox="0 0 16 16" width="100%" height="100%"><path stroke="currentColor" stroke-width="1.5" d="M3 5v9h10V5M3 5h10M3 5H1m12 0h2m-9.4-.4V2h4.8v2.6M6.5 8v3m3-3v3"/></svg>

<svg width="100%" height="100%" viewBox="0 0 16 16" fill="none" xmlns="http://www.w3.org/2000/svg">
<path d="M3 5V14H13V5M3 5H13M3 5H1M13 5H15" stroke="currentColor" stroke-width="1.5"/>
<path d="M5.59998 4.6V2H10.4V4.6" stroke="currentColor" stroke-width="1.5"/>
<path d="M6.5 8L6.5 11M9.5 8L9.5 11" stroke="currentColor" stroke-width="1.5"/>
</svg>
